X: 10673
T: O'ER THE MUIR AMANG THE HEATHER
Q: "Very Slow"
%R: air, strathspey
B: "Edinburgh Repository of Music" v.1 p.67 #3
F: http://digital.nls.uk/special-collections-of-printed-music/pageturner.cfm?id=87776133
Z: 2015 John Chambers <jc:trillian.mit.edu>
M: C
L: 1/8
K: G
|:\
D<GG>A ~G>AGD | E<AA>B c>BAG |\
B<dd>e g>ab>a | g>e d/e/g/B/ A>BA>G :|
|:\
d<g g>a g/a/b/a/ g>d | eaab c'>ba>g |\
b>age dc' Hb>a | g>e d/e/g/B/ A>BAG :|
